icons/house-two-color.svg

<?xml version="1.0" encoding="UTF-8"?><svg id="uuid-7ea945a2-617d-4d8a-ab40-a7d8eac5e3cb" xmlns="http://www.w3.org/2000/svg" viewBox="0 0 50 50"><rect x="20.17" y="48.82" width=".5" height=".5"/><polygon points="21.38 36.32 17.56 36.32 17.56 36.99 21.96 36.99 21.96 31.66 21.38 31.66 21.38 36.32" fill="none"/><polygon points="21.38 29.99 17.56 29.99 17.56 30.66 21.96 30.66 21.96 25.32 21.38 25.32 21.38 29.99" fill="none"/><polygon points="15.98 36.32 12.16 36.32 12.16 36.99 16.56 36.99 16.56 31.66 15.98 31.66 15.98 36.32" fill="none"/><path d="M29.83,36.03h-1.72v.67s.04-.01,.05-.01h2.13c.02-.05,.03-.11,.03-.16,0-.28-.22-.5-.5-.5Z" fill="none"/><polygon points="38.42 47.68 28.11 47.68 28.11 48.34 39 48.34 39 25.32 38.42 25.32 38.42 47.68" fill="none"/><path d="M15.98,29.99h-3.82v.66h4.4v-5.27s0-.04,.01-.06h-.59v4.67Z" fill="none"/><path d="M26.33,3.23l-9.37,7.36V4.42h-4.03V13.75l-8.48,6.66h4.78v28.68H43.43V20.42h4.78L26.33,3.23Zm-9.77,33.76h-4.4v-.66h-.58v-5.33h4.4v.66h.58v5.33Zm0-11.6v5.27h-4.4v-.66h-.58v-5.33h4.41s-.01,.04-.01,.06v.6h.59s-.01,.04-.01,.06Zm5.4,11.6h-4.4v-.66h-.58v-5.33h4.4v.66h.58v5.33Zm0-6.33h-4.4v-.66h-.58v-5.27s0-.04-.01-.06h4.41v.66h.58v5.33Zm17.04,17.69h-10.89v-.66h-.58v-10.66s.04,.01,.05,.01h2.25c.22,0,.4-.14,.47-.34h-2.13s-.04,0-.05,.01v-.67h-.53s-.04,0-.05,.01v-11.38h10.89v.66h.58v23.02Z" fill="#ffcd00"/><path d="M48.64,19.11L25.31,.79c-.18-.14-.44-.14-.62,0l-8.06,6.33V2.51c0-.28-.22-.5-.5-.5h-5.03c-.28,0-.5,.22-.5,.5V11.85L1.36,19.11c-.17,.13-.23,.36-.16,.56,.07,.2,.26,.34,.47,.34H6.9v28.18c0,.28,.22,.5,.5,.5H42.6c.28,0,.5-.22,.5-.5V20h5.22c.21,0,.4-.13,.47-.34,.07-.2,0-.42-.16-.56ZM11.6,3.01h4.03V7.9l-4.03,3.17V3.01Zm26.82,44.67h-10.89v-10.66s.04,.01,.05,.01h2.25c.28,0,.5-.22,.5-.5s-.22-.5-.5-.5h-2.25s-.04,0-.05,.01v-11.38h10.89v23.02Zm3.68,0h-2.68V24.16c0-.28-.22-.5-.5-.5h-11.89c-.28,0-.5,.22-.5,.5v23.52H7.9V20H42.1v27.68ZM3.12,19L25,1.81l21.88,17.19H3.12Z"/><path d="M11.08,37.32h10.8c.28,0,.5-.22,.5-.5v-12.66c0-.28-.22-.5-.5-.5H11.08c-.28,0-.5,.22-.5,.5v12.66c0,.28,.22,.5,.5,.5Zm10.3-1h-4.4v-5.33h4.4v5.33Zm0-11.66v5.33h-4.4v-5.27s0-.04-.01-.06h4.41Zm-9.8,0h4.41s-.01,.04-.01,.06v5.27h-4.4v-5.33Zm0,6.33h4.4v5.33h-4.4v-5.33Z"/></svg>

<svg id="a41ca940-a68b-4a0e-aa8c-7515d30a0628" data-name="ICONS" xmlns="http://www.w3.org/2000/svg" viewBox="0 0 50 50"><rect x="20.17" y="48.82" width="0.5" height="0.5" fill="#231f20"/><polygon points="21.38 36.32 17.56 36.32 17.56 36.99 21.96 36.99 21.96 31.66 21.38 31.66 21.38 36.32" fill="none"/><polygon points="21.38 29.99 17.56 29.99 17.56 30.66 21.96 30.66 21.96 25.32 21.38 25.32 21.38 29.99" fill="none"/><polygon points="15.98 36.32 12.16 36.32 12.16 36.99 16.56 36.99 16.56 31.66 15.98 31.66 15.98 36.32" fill="none"/><path d="M29.83,36H28.11v.68H30.3a.51.51,0,0,0,0-.17A.5.5,0,0,0,29.83,36Z" fill="none"/><polygon points="38.42 47.68 28.11 47.68 28.11 48.34 39 48.34 39 25.32 38.42 25.32 38.42 47.68" fill="none"/><path d="M16,30H12.16v.67h4.4V25.38s0,0,0-.06H16Z" fill="none"/><path d="M26.33,3.23,17,10.58V4.42h-4v9.33L4.45,20.42H9.23V49.09h34.2V20.42h4.78ZM16.56,37h-4.4v-.67h-.58V31H16v.67h.58Zm0-11.61v5.28h-4.4V30h-.58V24.66H16s0,0,0,.06v.6h.59S16.56,25.36,16.56,25.38ZM22,37h-4.4v-.67H17V31h4.4v.67H22Zm0-6.33h-4.4V30H17V24.72s0,0,0-.06h4.41v.66H22ZM39,48.34H28.11v-.66h-.58V37h2.3a.5.5,0,0,0,.47-.33H28.11V36h-.58V24.66H38.42v.66H39Z" fill="#fdd600"/><path d="M48.64,19.11,25.31.79a.48.48,0,0,0-.62,0L16.63,7.11V2.51a.5.5,0,0,0-.5-.5h-5a.5.5,0,0,0-.5.5v9.34L1.36,19.11a.51.51,0,0,0-.16.56.5.5,0,0,0,.47.33H6.9V48.18a.5.5,0,0,0,.5.5H42.6a.5.5,0,0,0,.5-.5V20h5.23a.5.5,0,0,0,.47-.33A.51.51,0,0,0,48.64,19.11ZM11.6,3h4V7.9l-4,3.17ZM38.42,47.68H27.53V37h2.3a.5.5,0,0,0,.5-.5.5.5,0,0,0-.5-.5h-2.3V24.66H38.42Zm3.68,0H39.42V24.16a.5.5,0,0,0-.5-.5H27a.5.5,0,0,0-.5.5V47.68H7.9V20H42.1ZM3.12,19,25,1.81,46.88,19Z" fill="#231f20"/><path d="M11.08,37.32h10.8a.5.5,0,0,0,.5-.5V24.16a.5.5,0,0,0-.5-.5H11.08a.5.5,0,0,0-.5.5V36.82A.5.5,0,0,0,11.08,37.32Zm10.3-1H17V31h4.4Zm0-11.66V30H17V24.72s0,0,0-.06Zm-9.8,0H16s0,0,0,.06V30h-4.4Zm0,6.33H16v5.33h-4.4Z" fill="#231f20"/></svg>
